!!!OTL: Adam und Eva (2-44), S. 119
!!!id: K1127
**kern
*clefG2
*k[b-]
*F:
{8a
8g
=1
4.f
8f
8f
8f
8e
8f
=2
4g
4g}
4r
=3
{8b-
8a
=4
4.g
8g
8g
8g
8cc
8b-
=5
4a
8a}
4.r
=6
{8a
8a
=7
4.g
8g
8a
8g
8a
8b
=8
2cc}
4r
=9
{8cc
8cc
=10
4.dd
8cc
8cc
8b-
8a
8g
=11
2f}
4r
=12
{8.cc
16b-
=13
4a
8.a
16a
8a
8a
8g
8a
=14
2b-}
4r
=15
{8.b-
16a
=16
4g
8.cc
16cc
8cc
8cc
8dd
8cc
=17
2a}
4r
=18
{8.cc
16b-
=19
4a
8.a
16a
8a
8a
8g
8a
=20
2b-}
4r
=21
{8.b-
16a
=22
4g
8.cc
16cc
8cc
8cc
8dd
8cc
=23
2f}
4r
=24
{8.cc
16b-
=25
4a
8.a
16a
8a
8a
8g
8a
=26
2b-}
4r
=27
{8.b-
16a
=28
4g
8.cc
16cc
8cc
8cc
8dd
8cc
=29
2a}
4r
=30
{8.cc
16b-
=31
4a
8.a
16a
8a
8a
8g
8a
=32
2b-}
4r
=33
{8.b-
16a
=34
4g
8.cc
16cc
8cc
8cc
8dd
8cc
=35
2f}
4r
==
*-
!!!minrhy: 16
!!!meters: 4/4 ]  ZZ[12
!!!cut: Adam und Eva (2-44), S. 119
!!!reg: Luxemburg
!!!trd: KINTZELE, Guillaume: An der Ucht, Bd. 2, Luxemburg 1927
!!!rhy1: X_X_  X__.X_X_X_X_X_  X__X__0_   (x2)
!!!rhy2: X_X_  X__.X_X_X_X_X_  X__X_0_.
!!!key: K1127  16  F 4/4 ]  ZZ[12
!!!mod: ACHTTONSKALA DUR ?]  AMBITUS[7b
!!!kad: 235143414341
!!!akz: 112_223_235_651_334_253_334_251_334_253_334_251_
!!!fot: 'a__as'b__c__as'd__as'dw_as'd__as'dw_
!!!for: 'a__av_aw_aw_b__b__b__b__b__b__b__b__
!!!fok: 'Vd_\__/__\__Vd_Sd_Vd_Sd_Vd_Sd_Vd_Sd_
!! PHRAS[AUFTAKTIG]
!!!fkt: Scherzlied
!!!bem: in der Quelle mit einer 2. Stimme versehen
!! KINTZELE
!! PR[35] 2K[0] 2G[10] 3K[10] 3G[7] 4A[6] 4Ü[0] 5A[1] 6K[0] 6G[0]
!! 7K[0] 7G[0] 8A[1] MEHR[0] SI[35] ABS[71] SR[10] SP[25]
!! ST[18] 2k[3] 2g[6] 3k[3] 3g[8] 4d[1] 4ü[3] 5d[3] 6k[0] 6g[3]
!! 7k[0] 7g[0] 8d[0] mehr[0] si[30] dm[+5] sr[8] sp[21]
!! 1F[5] 2F[51] 3F[38] 4F[0] LF[0] 2P[0] 3P[5] 4P[0] TRI[0] DF[4] AB[74]
!! TF[0] U3K[0] U3[0] U4[0] U4Ü[0] U5[17] U6K[0] U6[0] U7K[0] U7[6]
!! N1[25] N2K[0] N2[25] N3K[0] N3[19] N4[3] N4Ü[0] N5[6] N6K[0] N6[0]
!!!n7k: 0] N7[0] O1[0] O2K[0] O2[0] O3K[0] O3[0] HÖ[0
